X:105
T: LENORE FUHR UMS MORGENROTH
N: B0135
O: Europa, Mitteleuropa, Deutschland
R: Ballade, Romanze
M: 2/4
L: 1/16
K: A
E2 | A2B2c2d2 | e2d2d2
e2 | e2dcB2A2 | A2G2A2
E2 | A2B2c2d2 | e2d2d2
e2 | e2dcB2A2 | A2G2A2
B2 | e2B2B2c2 | d2B2c2
A2 | B2G2A2c2 | d2B2c2
e2 | e3dd2d2 | d2c2
c4 | d2c2B2A2 | B4A2

